packages/astro-components-stencil/src/icons/recent-actors.svg

<svg xmlns="http://www.w3.org/2000/svg" viewBox="0 0 24 24"><g xmlns="http://www.w3.org/2000/svg" id="recent-actors" fill-rule="nonzero">
            <path d="M21 6v12c0 .55.45 1 1 1s1-.45 1-1V6c0-.55-.45-1-1-1s-1 .45-1 1zm-3 13c.55 0 1-.45 1-1V6c0-.55-.45-1-1-1s-1 .45-1 1v12c0 .55.45 1 1 1zM14 5H2c-.55 0-1 .45-1 1v12c0 .55.45 1 1 1h12c.55 0 1-.45 1-1V6c0-.55-.45-1-1-1zM8 7.75c1.24 0 2.25 1.01 2.25 2.25S9.24 12.25 8 12.25 5.75 11.24 5.75 10 6.76 7.75 8 7.75zM12.5 17h-9v-.75c0-1.5 3-2.25 4.5-2.25s4.5.75 4.5 2.25V17z"/>
        </g></svg>

<svg width="24" height="24" viewBox="0 0 24 24" fill="none" xmlns="http://www.w3.org/2000/svg">
<path fill-rule="evenodd" clip-rule="evenodd" d="M2 5H14C14.55 5 15 5.45 15 6V18C15 18.55 14.55 19 14 19H2C1.45 19 1 18.55 1 18V6C1 5.45 1.45 5 2 5ZM18 19C18.55 19 19 18.55 19 18V6C19 5.45 18.55 5 18 5C17.45 5 17 5.45 17 6V18C17 18.55 17.45 19 18 19ZM21 6V18C21 18.55 21.45 19 22 19C22.55 19 23 18.55 23 18V6C23 5.45 22.55 5 22 5C21.45 5 21 5.45 21 6ZM8 7.75C9.24 7.75 10.25 8.76 10.25 10C10.25 11.24 9.24 12.25 8 12.25C6.76 12.25 5.75 11.24 5.75 10C5.75 8.76 6.76 7.75 8 7.75ZM3.5 16.25V17H12.5V16.25C12.5 14.75 9.5 14 8 14C6.5 14 3.5 14.75 3.5 16.25Z" fill="black"/>
</svg>
